X:1
T:Min Blodige Konung, 11.11.11.11
T:Min Blodige Konung, 11.11.11.11
T:Andreas Carl Rutström (1721-1772)
T:Public Domain Courtesy of the Cyber Hymnal™
C:Andreas Carl Rutström (1721-1772)
Z:Public Domain
Z:Courtesy of the Cyber Hymnal™
%%score ( 1 2 ) ( 3 4 )
L:1/8
Q:1/4=105
M:2/4
K:C
V:1 treble 
V:2 treble 
V:3 bass 
V:4 bass 
V:1
 C | [EG]2 [EG][EG] | [EG]2 [FA][EG] | [EG]2 [DF][CE] | [B,D]2 z [B,D] | [A,F]2 [A,F][A,F] | %6
 [B,F]2 [B,G][B,F] | [CE]2 CC | C2 z C | [CG]2 [CG][CG] | (GB) [Ed][Ec] | [Ac]2 [Ge][Fd] | %12
 [Ec]2 z [Gc] | [FA]2 F[FA] | [EG]2 E[EG] | [DF]2 [B,D][B,D] | C2 z |] %17
V:2
 C | x4 | x4 | x4 | x4 | x4 | x4 | x2 CC | C2 C x | x4 | F2 x2 | x4 | x4 | x2 F x | x2 E x | x4 | %16
 C2 x |] %17
V:3
 [C,C] | [C,C]2 [C,C][C,C] | [C,C]2 [C,C][C,C] | G,2 G,G, | G,2 z G, | [D,F,]2 [D,F,][D,F,] | %6
 [G,,G,]2 [G,,G,][G,,G,] | [C,G,]2 [C,E,][C,E,] | [C,E,]2 z [E,G,] | [E,G,]2 [E,G,][E,G,] | %10
 [D,G,]2 [E,G,][E,G,] | [F,A,]2 [G,B,][G,B,] | [A,C]2 z [E,C] | [F,C]2 [D,B,][D,B,] | %14
 [E,B,]2 [^C,A,][C,A,] | [D,A,]2 [G,,G,][G,,F,] | [C,E,]2 z |] %17
V:4
 x | x4 | x4 | G,2 G,G, | G,2 G, x | x4 | x4 | x4 | x4 | x4 | x4 | x4 | x4 | x4 | x4 | x4 | x3 |] %17

